assets/svg/icon_video_addvideo.svg

<svg width="24" height="24" viewBox="0 0 24 24" fill="none" xmlns="http://www.w3.org/2000/svg">
<path d="M3 11.1875V12.1458C3 15.2964 3 16.8716 3.87013 17.9319C4.02942 18.1259 4.20739 18.3039 4.4015 18.4632C5.46175 19.3333 7.037 19.3333 10.1875 19.3333C13.338 19.3333 14.9132 19.3333 15.9735 18.4632C16.1676 18.3039 16.3456 18.1259 16.5048 17.9319C17.375 16.8716 17.375 15.2964 17.375 12.1458V11.1875C17.375 8.037 17.375 6.46175 16.5048 5.4015C16.3456 5.20739 16.1676 5.02942 15.9735 4.87013C14.9132 4 13.338 4 10.1875 4C7.037 4 5.46175 4 4.4015 4.87013C4.20739 5.02942 4.02942 5.20739 3.87013 5.4015C3.46013 5.90107 3.24332 6.51499 3.12868 7.35417M7.3125 11.666H13.0625M10.1875 14.541V8.79102M17.3755 9.27008L18.0064 8.95461C19.8712 8.02221 20.8036 7.55601 21.4854 7.97736C22.1671 8.39871 22.1671 9.44117 22.1671 11.5261V11.8057C22.1671 13.8907 22.1671 14.9331 21.4854 15.3544C20.8036 15.7758 19.8712 15.3096 18.0064 14.3772L17.3755 14.0618V9.27008Z" stroke="white" stroke-width="1.27458" stroke-linecap="round"/>
</svg>

<svg xmlns="http://www.w3.org/2000/svg" width="24" height="24" fill="none"><path stroke="#fff" stroke-linecap="round" stroke-width="1.275" d="M3 11.188v.958c0 3.15 0 4.726.87 5.786q.24.292.532.531c1.06.87 2.635.87 5.786.87s4.725 0 5.785-.87q.293-.24.532-.531c.87-1.06.87-2.636.87-5.786v-.959c0-3.15 0-4.725-.87-5.785a4 4 0 0 0-.531-.532C14.914 4 13.337 4 10.188 4c-3.151 0-4.726 0-5.786.87q-.293.24-.532.532c-.41.5-.627 1.113-.741 1.952m4.184 4.312h5.75m-2.876 2.875v-5.75m7.188.48.631-.316c1.865-.933 2.798-1.399 3.48-.978s.681 1.464.681 3.55v.279c0 2.085 0 3.127-.682 3.548-.681.422-1.614-.044-3.479-.977l-.63-.315z"/></svg>
